build/assets/stack.svg

<?xml version="1.0" encoding="utf-8"?>
<!-- Generated by IcoMoon.io -->
<!DOCTYPE svg PUBLIC "-//W3C//DTD SVG 1.1//EN" "http://www.w3.org/Graphics/SVG/1.1/DTD/svg11.dtd">
<svg version="1.1" xmlns="http://www.w3.org/2000/svg" xmlns:xlink="http://www.w3.org/1999/xlink" width="100%" height="100%" viewBox="0 0 512 512" preserveAspectRatio="xMidYMid meet">
<g id="icomoon-ignore">
</g>
<path fill="#333333" d="M512 160l-256-128-256 128 256 128 256-128zM256 74.485l171.029 85.515-171.029 85.515-171.029-85.515 171.029-85.515zM460.722 230.361l51.278 25.639-256 128-256-128 51.278-25.639 204.722 102.361zM460.722 326.361l51.278 25.639-256 128-256-128 51.278-25.639 204.722 102.361z"></path>
</svg>

<svg xmlns="http://www.w3.org/2000/svg" width="512" height="512" viewBox="0 0 512 512"><path fill="#333" d="M512 160L256 32 0 160l256 128 256-128zM256 74.485L427.03 160 256 245.515 84.97 160 256 74.485zM460.722 230.36L512 256 256 384 0 256l51.278-25.64L256 332.723zm0 96L512 352 256 480 0 352l51.278-25.64L256 428.723z"/></svg>
